X: 20876
T: Jolly Tinker, The
R: reel
M: 4/4
K: Adorian
A3B G3B|A2af gedB|A2BA G3B|dBGB d^cdB|
A^GAB =G3B|A2af gedB|A2BA GFGB|dBGB d2 Bg||
edef g2ef|geag {a}gedg|edeg a2e(a|~a2)bg aged|
(3B^cd ef g2e(g|~g2)af gedg|edeg a2e(a|~a2)bg aged||
ea{b}ag egdg|ea{b}ag egdg|ea{b}ag efge|dBGB d2 Bd|
e ~a3 e ~a3|e ~a3 egdg|ea{b}ag efge|dBGB d2 Bd||
edgd edBd|edgd e2 (3Bcd|edgd eg{a}ge|dBGB d2 Bd|
edgd edBd|edgd e2 (3Bcd|edef gfge|dBGB dgfg||
eA (3AAA edBd|edef g2fg|e ~A3 efge|dBGB d2 Bd|
eA (3AAA edBd|edef g2fg|ea{b}ag efge|dBGB d2 dB||

